X:1
T:Title
%%score { ( 1 3 ) | ( 2 4 ) }
L:1/8
M:4/4
K:D
V:1 treble nm="Grand Piano"
V:3 treble 
V:2 bass 
V:4 bass 
V:1
 z4 z2[Q:1/4=94] DF | [FA][FA][FA][FA] [FA][Fd][Ac][GB] |[M:3/4] [FA][FA] DE F2 |[M:1/4] EF | %4
[M:4/4] [CEG][CEG][CEG][CEG] [CEG][CGB][DFA][A,EG] |[M:3/4] [A,DF][A,EG] [FA][GB] [FA]2 | %6
[M:1/4] [FA][FA] |[M:4/4] [Fd][Fd][Ad][Ad] edcB |[M:3/4] [FA][FA] [DF][FA] B2 |[M:1/4] BB | %10
[M:4/4] [^Ge][Gd][EGc][DGB] [CA][DFA][DFA][DFA] |[M:3/4] [DGB][GB] [Ec][Gc] [Fd]2 | %12
[M:1/4] [FA][FA] |[M:4/4] d4 z4 | e4 z4 | z4 z2 [Ad]2 | e6 z2 |[M:3/4] [FA]4 z2 |[M:1/4] [Af][Af] | %19
[M:4/4] [Ge]4 z4 | z4 z2 c2 |[M:3/4] d6 |] %22
V:2
 z4 z2 [D,F,][D,A,D] | [D,D][D,D][D,D][D,D] [D,D][D,D][D,D][D,D] | %2
[M:3/4] [D,D][D,A,] [F,A,][E,A,C] [D,A,D]2 |[M:1/4] [E,A,C][D,A,D] | %4
[M:4/4] A,,A,,A,,A,, A,,A,,A,,A,, |[M:3/4] D,D, [D,D][D,D] [D,D]2 |[M:1/4] [D,D][D,D] | %7
[M:4/4] [D,A,][D,A,][E,A,][F,A,][K:treble] [G,B,G][G,B,G][G,B,G][G,DG] | %8
[M:3/4][K:bass] [D,D][D,D] [D,A,][D,D][K:treble] [G,DG]2 |[M:1/4] [G,DG][G,DG] | %10
[M:4/4][K:bass] [E,D][E,B,]E,E, A,A,A,A, |[M:3/4] A,,[A,,A,] [A,,A,][A,,A,] [D,A,]2 | %12
[M:1/4] [D,D][D,D] |[M:4/4] [D,A,][D,A,][D,A,][D,A,] [D,D]2 [D,A,][D,A,] | %14
 [G,B,G][G,B,][G,B,][G,B,] [G,DG]2[K:bass] [G,D][G,D] | [D,D][D,D][D,D][F,D] [E,A,]2 .[D,F,]2 | %16
 A6[K:bass] z2 |[M:3/4] D,D, D,D, [D,A,]2 |[M:1/4] [D,D][D,D] | %19
[M:4/4] [G,B,]G,G,G,[K:treble] [G,DG]2 [G,DA][G,DG] | %20
 [A,DF][A,DF][A,DF][A,DF][K:bass] [A,,A,]2 [A,,A,]2 |[M:3/4] A,2 z2 z2 |] %22
V:3
 x8 | x8 |[M:3/4] x6 |[M:1/4] x2 |[M:4/4] x8 |[M:3/4] x6 |[M:1/4] x2 |[M:4/4] x8 |[M:3/4] x6 | %9
[M:1/4] x2 |[M:4/4] x8 |[M:3/4] x6 |[M:1/4] x2 |[M:4/4] FFFF [FA]2 [Fd][Fd] | z GGG B2 [Ac][GB] | %15
 [FA][FA][FA][Ad] [Ac]2 z A, | z2 CD CB,[A,A][CGA] |[M:3/4] DD DD [Fd]2 |[M:1/4] x2 | %19
[M:4/4] z B,B,B, B2 cB | AAAA [GB]2 EG |[M:3/4] F2 GG F2 |] %22
V:4
 x8 | x8 |[M:3/4] x6 |[M:1/4] x2 |[M:4/4] x8 |[M:3/4] x6 |[M:1/4] x2 |[M:4/4] x4[K:treble] x4 | %8
[M:3/4][K:bass] x4[K:treble] x2 |[M:1/4] x2 |[M:4/4][K:bass] x8 |[M:3/4] x6 |[M:1/4] x2 | %13
[M:4/4] x8 | x6[K:bass] x2 | x8 | [A,C]2 A,B, A,G,[K:bass]F,E, |[M:3/4] x6 |[M:1/4] x2 | %19
[M:4/4] x4[K:treble] x4 | x4[K:bass] x4 |[M:3/4] D,2- [D,-B,][D,-B,] [D,A,]2 |] %22

